theme/icons/tag-list/file-manager.svg

<svg xmlns="http://www.w3.org/2000/svg" width="64" height="64" version="1.1">
 <rect style="opacity:0.2" width="45" height="20" x="10" y="41" rx="4" ry="4"/>
 <path style="fill:#1565c0" d="M 14.21875,4 C 11.881563,4 10,5.8732 10,8.2 V 13.8 18 29 H 55 V 18 13.8 8.2 C 55,5.8732 53.118437,4 50.78125,4 Z"/>
 <path style="fill:#1e88e5" d="M 14.21875,21 C 11.881563,21 10,22.8732 10,25.2 V 30.6 34.8 46 H 55 V 34.8 30.6 25.2 C 55,22.8732 53.118437,21 50.78125,21 Z"/>
 <rect style="fill:#42a5f5" width="45" height="20" x="10" y="40" rx="4" ry="4"/>
 <path style="opacity:0.2" d="m 28.5,13 c -0.831,0 -1.5,0.669 -1.5,1.5 0,0.831 0.669,1.5 1.5,1.5 h 8 C 37.331,16 38,15.331 38,14.5 38,13.669 37.331,13 36.5,13 Z m 0,17 c -0.831,0 -1.5,0.669 -1.5,1.5 0,0.831 0.669,1.5 1.5,1.5 h 8 C 37.331,33 38,32.331 38,31.5 38,30.669 37.331,30 36.5,30 Z m 0,20 c -0.831,0 -1.5,0.669 -1.5,1.5 0,0.831 0.669,1.5 1.5,1.5 h 8 C 37.331,53 38,52.331 38,51.5 38,50.669 37.331,50 36.5,50 Z"/>
 <rect style="fill:#ffffff" width="11" height="3" x="27" y="12" rx="1.5" ry="1.5"/>
 <rect style="fill:#ffffff" width="11" height="3" x="27" y="29" rx="1.5" ry="1.5"/>
 <rect style="fill:#ffffff" width="11" height="3" x="27" y="49" rx="1.5" ry="1.5"/>
 <path style="opacity:0.1;fill:#ffffff" d="M 14.21875 4 C 11.881563 4 10 5.8724187 10 8.1992188 L 10 9.1992188 C 10 6.8724187 11.881563 5 14.21875 5 L 50.78125 5 C 53.118437 5 55 6.8724188 55 9.1992188 L 55 8.1992188 C 55 5.8724188 53.118437 4 50.78125 4 L 14.21875 4 z"/>
 <path style="opacity:0.1;fill:#ffffff" d="M 14.21875 21 C 11.881563 21 10 22.872419 10 25.199219 L 10 26.199219 C 10 23.872419 11.881563 22 14.21875 22 L 50.78125 22 C 53.118437 22 55 23.872419 55 26.199219 L 55 25.199219 C 55 22.872419 53.118437 21 50.78125 21 L 14.21875 21 z"/>
 <path style="opacity:0.2;fill:#ffffff" d="M 14 40 C 11.784 40 10 41.784 10 44 L 10 45 C 10 42.784 11.784 41 14 41 L 51 41 C 53.216 41 55 42.784 55 45 L 55 44 C 55 41.784 53.216 40 51 40 L 14 40 z"/>
</svg>

<svg xmlns="http://www.w3.org/2000/svg" width="64" height="64">
    <rect style="opacity:.2" width="45" height="20" x="10" y="41" rx="4" ry="4"/>
    <path style="fill:#1565c0" d="M14.219 4A4.2 4.2 0 0 0 10 8.2V29h45V8.2A4.2 4.2 0 0 0 50.781 4Z"/>
    <path style="fill:#1e88e5" d="M14.219 21A4.2 4.2 0 0 0 10 25.2V46h45V25.2a4.2 4.2 0 0 0-4.219-4.2Z"/>
    <rect style="fill:#42a5f5" width="45" height="20" x="10" y="40" rx="4" ry="4"/>
    <path style="opacity:.2" d="M28.5 13c-.831 0-1.5.669-1.5 1.5s.669 1.5 1.5 1.5h8c.831 0 1.5-.669 1.5-1.5s-.669-1.5-1.5-1.5Zm0 17c-.831 0-1.5.669-1.5 1.5s.669 1.5 1.5 1.5h8c.831 0 1.5-.669 1.5-1.5s-.669-1.5-1.5-1.5Zm0 20c-.831 0-1.5.669-1.5 1.5s.669 1.5 1.5 1.5h8c.831 0 1.5-.669 1.5-1.5s-.669-1.5-1.5-1.5Z"/>
    <rect style="fill:#fff" width="11" height="3" x="27" y="12" rx="1.5" ry="1.5"/>
    <rect style="fill:#fff" width="11" height="3" x="27" y="29" rx="1.5" ry="1.5"/>
    <rect style="fill:#fff" width="11" height="3" x="27" y="49" rx="1.5" ry="1.5"/>
    <path style="opacity:.1;fill:#fff" d="M14.219 4A4.2 4.2 0 0 0 10 8.2v1A4.2 4.2 0 0 1 14.219 5H50.78A4.2 4.2 0 0 1 55 9.2v-1A4.2 4.2 0 0 0 50.781 4H14.22zm0 17A4.2 4.2 0 0 0 10 25.2v1a4.2 4.2 0 0 1 4.219-4.2H50.78A4.2 4.2 0 0 1 55 26.2v-1a4.2 4.2 0 0 0-4.219-4.2H14.22z"/>
    <path style="opacity:.2;fill:#fff" d="M14 40c-2.216 0-4 1.784-4 4v1c0-2.216 1.784-4 4-4h37c2.216 0 4 1.784 4 4v-1c0-2.216-1.784-4-4-4H14z"/>
</svg>
